X: 14561
T: Gan Ainm
R: strathspey
M: 4/4
K: Dmajor
A>F E<D E>D B,<D|F>E D<F A2 A>B|d>A d<f a>b a<f|g>f e>d B/A/G/F/ E/D/B,/D/|
A>F E<D E>D B,<D|F>E D<F A2 A>B|d>B A<F A>B A/F/E/D/|A,<B, D>C D2 A<B:|
A>D B>D A>F E<D|F>E D<F E>B, A,<B,|A,>B, D>B, A>F E<D|A<F d>B A/F/E/D/ B,>D|
A<D B>D A>F E<D|E>F G>F E<D B,<E|D>F A>F d>B A<F|A,<B, D>C D2 A<B:|

